; generated by Slic3r 0.9.8 on 2013-04-16 at 14:44:57

; layer_height = 0.1
; perimeters = 1
; top_solid_layers = 0
; bottom_solid_layers = 0
; fill_density = 0.5
; perimeter_speed = 40
; infill_speed = 80
; travel_speed = 150
; scale = 1
; nozzle_diameter = 0.5
; filament_diameter = 3
; extrusion_multiplier = 1
; perimeters extrusion width = 0.80mm
; infill extrusion width = 0.80mm
; first layer extrusion width = 0.80mm

M127
M104 S200 T0 ; set temperature
(**** beginning of start.gcode ****)
(This is start code for The Replicator running a single material print)
M73 P0 (enable build progress)
G21 (set units to mm)
G90 (set positioning to absolute)
G10 P1 X16.5 Y0 Z-0.3 (Designate T0 Offset)
G10 P2 X-16.5 Y0 Z-0.3 (Designate T1 Offset)
G55 (Recall offset cooridinate system for T1)
M104 S0 T0 (set extruder temperature)
(**** begin homing ****)
G162 X Y F2500 (home XY axes maximum
G161 Z F1100 (home Z axis minimum)
G92 Z-5 (set Z to -5)
G1 Z0.0 (move Z to "0")
G161 Z F100 (home Z axis minimum)
M132 X Y Z A B (Recall stored home offsets for XYZAB axis)
(**** end homing ****)
G1 X105 Y-70 Z10 F3300.0 (move to waiting position)
G130 X0 Y0 A0 B0 (Set Stepper motor Vref to lower value while heating)
M6 T0 (wait for toolhead parts, nozzle, HBP, etc., to reach temperature)
G130 X127 Y127 A127 B127 (Set Stepper motor Vref to defaults)
M6 T0
M108 R3.0 T0
G0 X105 Y-70 (Position Nozzle)
G0 Z0.6     (Position Height)
M108 R4.0   (Set Extruder Speed)
M101        (Start Extruder)
G4 P1500    (Create Anchor)
(**** end of start.gcode ****)
G90 ; use absolute coordinates
G21 ; set units to millimeters
M73 P0
G1 F1800.000 E-1.00000
G1 Z0.400 F9000.000
G1 X-18.710 Y-18.520
G1 F1800.000 E0.00000
G1 X-18.110 Y-19.070 F2160.000 E0.03388
G1 X-17.680 Y-19.390 E0.05619
G1 X-17.220 Y-19.680 E0.07883
G1 X-16.740 Y-19.940 E0.10156
G1 X-16.490 Y-20.050 E0.11293
G1 X-15.980 Y-20.240 E0.13558
G1 X-15.200 Y-20.450 E0.16921
G1 X-14.660 Y-20.540 E0.19200
G1 X-13.850 Y-20.590 E0.22578
G1 X14.110 Y-20.580 E1.38968
G1 X14.650 Y-20.540 E1.41222
G1 X15.190 Y-20.450 E1.43501
G1 X15.970 Y-20.240 E1.46864
G1 X16.480 Y-20.050 E1.49129
G1 X16.730 Y-19.940 E1.50266
G1 X17.210 Y-19.680 E1.52539
G1 X17.670 Y-19.390 E1.54802
G1 X18.100 Y-19.070 E1.57034
G1 X18.510 Y-18.710 E1.59305
G1 X19.060 Y-18.110 E1.62693
G1 X19.380 Y-17.680 E1.64925
G1 X19.670 Y-17.220 E1.67188
G1 X19.930 Y-16.740 E1.69461
G1 X20.040 Y-16.490 E1.70598
G1 X20.230 Y-15.980 E1.72863
G1 X20.440 Y-15.200 E1.76226
G1 X20.530 Y-14.660 E1.78505
G1 X20.580 Y-13.850 E1.81883
G1 X20.570 Y14.110 E2.98273
G1 X20.530 Y14.650 E3.00527
G1 X20.440 Y15.190 E3.02806
G1 X20.230 Y15.970 E3.06169
G1 X20.040 Y16.480 E3.08434
G1 X19.930 Y16.730 E3.09571
G1 X19.530 Y17.440 E3.12964
G1 X19.220 Y17.890 E3.15238
G1 X18.880 Y18.310 E3.17488
G1 X18.510 Y18.700 E3.19726
G1 X17.890 Y19.220 E3.23094
G1 X17.440 Y19.530 E3.25369
G1 X16.730 Y19.930 E3.28761
G1 X15.970 Y20.230 E3.32163
G1 X15.190 Y20.440 E3.35525
G1 X14.650 Y20.530 E3.37804
G1 X13.840 Y20.580 E3.41182
G1 X-14.120 Y20.570 E4.57573
G1 X-14.660 Y20.530 E4.59827
G1 X-15.200 Y20.440 E4.62106
G1 X-15.980 Y20.230 E4.65468
G1 X-16.490 Y20.040 E4.67734
G1 X-16.740 Y19.930 E4.68871
G1 X-17.220 Y19.670 E4.71143
G1 X-17.680 Y19.380 E4.73407
G1 X-18.110 Y19.060 E4.75638
G1 X-18.520 Y18.700 E4.77909
G1 X-19.070 Y18.100 E4.81298
G1 X-19.390 Y17.670 E4.83529
G1 X-19.680 Y17.210 E4.85793
G1 X-19.940 Y16.730 E4.88065
G1 X-20.050 Y16.480 E4.89202
G1 X-20.240 Y15.970 E4.91468
G1 X-20.450 Y15.190 E4.94830
G1 X-20.540 Y14.650 E4.97109
G1 X-20.590 Y13.840 E5.00487
G1 X-20.580 Y-14.120 E6.16878
G1 X-20.540 Y-14.660 E6.19132
G1 X-20.450 Y-15.200 E6.21411
G1 X-20.240 Y-15.980 E6.24773
G1 X-20.050 Y-16.490 E6.27039
G1 X-19.940 Y-16.740 E6.28176
G1 X-19.540 Y-17.450 E6.31568
G1 X-19.070 Y-18.110 E6.34941
G1 X-18.784 Y-18.438 E6.36753
G1 X-18.710 Y-18.520 E6.37212
G1 F1800.000 E5.37212
G1 X-13.850 Y-13.850 F9000.000
G1 F1800.000 E6.37212
G1 X13.850 Y-13.850 F2160.000 E7.52518
G1 X13.850 Y13.850 E8.67824
G1 X-13.850 Y13.850 E9.83130
G1 X-13.850 Y-13.739 E10.97976
G1 X-13.850 Y-13.850 E10.98436
G1 F1800.000 E9.98436
G1 X-13.328 Y-10.500 F9000.000
G1 F1800.000 E10.98436
G1 X-13.445 Y-10.617 F4320.000 E10.99125
G1 X-13.445 Y-10.063 E11.01430
G1 F1800.000 E10.01430
G1 X-12.270 Y13.445 F9000.000
G1 F1800.000 E11.01430
G1 X-13.445 Y12.270 F4320.000 E11.08346
G1 X-13.445 Y10.190 E11.17007
G1 X-12.920 Y10.715 E11.20099
G1 X-13.140 Y11.535 E11.23635
G1 X-11.638 Y13.037 E11.32475
G1 X-10.818 Y12.817 E11.36011
G1 X-10.190 Y13.445 E11.39708
G1 X-9.149 Y13.445 F9000.000
G1 X-10.298 Y12.297 F4320.000 E11.46467
G1 X-10.078 Y11.476 E11.50003
G1 X-11.579 Y9.975 E11.58843
G1 X-12.400 Y10.195 E11.62379
G1 X-13.445 Y9.149 E11.68532
G1 X-13.445 Y7.069 E11.77194
G1 X-13.161 Y7.353 E11.78864
G1 X-12.341 Y7.133 E11.82400
G1 X-10.839 Y8.634 E11.91240
G1 X-11.059 Y9.455 E11.94776
G1 X-9.558 Y10.956 E12.03616
G1 X-8.737 Y10.736 E12.07152
G1 X-7.236 Y12.238 E12.15991
G1 X-7.455 Y13.059 E12.19527
G1 X-7.069 Y13.445 E12.21803
G1 F1800.000 E11.21803
G1 X-4.513 Y13.445 F9000.000
G1 F1800.000 E12.21803
G1 X-4.393 Y13.000 F4320.000 E12.23723
G1 X-5.895 Y11.498 E12.32563
G1 X-6.715 Y11.718 E12.36099
G1 X-8.217 Y10.216 E12.44939
G1 X-7.997 Y9.396 E12.48475
G1 X-9.499 Y7.894 E12.57314
G1 X-10.319 Y8.114 E12.60850
G1 X-11.821 Y6.613 E12.69690
G1 X-11.601 Y5.792 E12.73226
G1 X-13.102 Y4.290 E12.82066
G1 X-13.445 Y4.382 E12.83543
G1 X-13.445 Y1.867 E12.94013
G1 X-12.362 Y2.950 E13.00386
G1 X-12.582 Y3.770 E13.03922
G1 X-11.081 Y5.272 E13.12762
G1 X-10.260 Y5.052 E13.16298
G1 X-8.759 Y6.554 E13.25138
G1 X-8.979 Y7.374 E13.28674
G1 X-7.477 Y8.876 E13.37514
G1 X-6.656 Y8.656 E13.41050
G1 X-5.155 Y10.157 E13.49889
G1 X-5.375 Y10.978 E13.53425
G1 X-3.873 Y12.479 E13.62265
G1 X-3.053 Y12.260 E13.65801
G1 X-1.867 Y13.445 E13.72780
G1 F1800.000 E12.72780
G1 X0.213 Y13.445 F9000.000
G1 F1800.000 E13.72780
G1 X-0.210 Y13.021 F4320.000 E13.75276
G1 X-1.031 Y13.241 E13.78812
G1 X-2.533 Y11.739 E13.87652
G1 X-2.313 Y10.919 E13.91188
G1 X-3.814 Y9.417 E14.00027
G1 X-4.635 Y9.637 E14.03563
G1 X-6.136 Y8.136 E14.12403
G1 X-5.916 Y7.315 E14.15939
G1 X-7.418 Y5.814 E14.24779
G1 X-8.238 Y6.033 E14.28315
G1 X-9.740 Y4.532 E14.37155
G1 X-9.520 Y3.711 E14.40691
G1 X-11.022 Y2.210 E14.49530
G1 X-11.842 Y2.430 E14.53066
G1 X-13.344 Y0.928 E14.61906
G1 X-13.124 Y0.108 E14.65442
G1 X-13.445 Y-0.213 E14.67332
G1 X-13.445 Y-1.254 E14.71663
G1 X-12.604 Y-0.413 E14.76616
G1 X-11.783 Y-0.632 E14.80152
G1 X-10.282 Y0.869 E14.88991
G1 X-10.502 Y1.690 E14.92527
G1 X-9.000 Y3.191 E15.01367
G1 X-8.180 Y2.971 E15.04903
G1 X-6.678 Y4.473 E15.13743
G1 X-6.898 Y5.293 E15.17279
G1 X-5.396 Y6.795 E15.26119
G1 X-4.576 Y6.575 E15.29655
G1 X-3.074 Y8.077 E15.38494
G1 X-3.294 Y8.897 E15.42030
G1 X-1.792 Y10.399 E15.50870
G1 X-0.972 Y10.179 E15.54406
G1 X0.530 Y11.681 E15.63246
G1 X0.310 Y12.501 E15.66782
G1 X1.254 Y13.445 E15.72340
G1 F1800.000 E14.72340
G1 X3.334 Y13.445 F9000.000
G1 F1800.000 E15.72340
G1 X3.152 Y13.263 F4320.000 E15.73414
G1 X3.372 Y12.442 E15.76950
G1 X1.870 Y10.941 E15.85790
G1 X1.050 Y11.160 E15.89326
G1 X-0.452 Y9.659 E15.98166
G1 X-0.232 Y8.838 E16.01702
G1 X-1.734 Y7.337 E16.10541
G1 X-2.554 Y7.557 E16.14077
G1 X-4.056 Y6.055 E16.22917
G1 X-3.836 Y5.235 E16.26453
G1 X-5.337 Y3.733 E16.35293
G1 X-6.158 Y3.953 E16.38829
G1 X-7.659 Y2.451 E16.47669
G1 X-7.440 Y1.631 E16.51205
G1 X-8.941 Y0.129 E16.60044
G1 X-9.762 Y0.349 E16.63580
G1 X-11.263 Y-1.153 E16.72420
G1 X-11.043 Y-1.973 E16.75956
G1 X-12.545 Y-3.475 E16.84796
G1 X-13.365 Y-3.255 E16.88332
G1 X-13.445 Y-3.334 E16.88801
G1 X-13.445 Y-6.280 E17.01061
G1 X-13.307 Y-6.317 E17.01659
G1 X-11.805 Y-4.815 E17.10498
G1 X-12.025 Y-3.995 E17.14034
G1 X-10.523 Y-2.493 E17.22874
G1 X-9.703 Y-2.713 E17.26410
G1 X-8.201 Y-1.211 E17.35250
G1 X-8.421 Y-0.391 E17.38786
G1 X-6.919 Y1.111 E17.47626
G1 X-6.099 Y0.891 E17.51162
G1 X-4.597 Y2.392 E17.60001
G1 X-4.817 Y3.213 E17.63537
G1 X-3.316 Y4.714 E17.72377
G1 X-2.495 Y4.495 E17.75913
G1 X-0.994 Y5.996 E17.84753
G1 X-1.213 Y6.817 E17.88289
G1 X0.288 Y8.318 E17.97129
G1 X1.109 Y8.098 E18.00665
G1 X2.610 Y9.600 E18.09504
G1 X2.390 Y10.420 E18.13040
G1 X3.892 Y11.922 E18.21880
G1 X4.712 Y11.702 E18.25416
G1 X6.214 Y13.204 E18.34256
G1 X6.149 Y13.445 E18.35296
G1 F1800.000 E17.35296
G1 X8.536 Y13.445 F9000.000
G1 F1800.000 E18.35296
G1 X7.555 Y12.464 F4320.000 E18.41074
G1 X6.734 Y12.684 E18.44610
G1 X5.233 Y11.182 E18.53450
G1 X5.452 Y10.361 E18.56986
G1 X3.951 Y8.860 E18.65826
G1 X3.130 Y9.080 E18.69362
G1 X1.629 Y7.578 E18.78201
G1 X1.849 Y6.758 E18.81737
G1 X0.347 Y5.256 E18.90577
G1 X-0.473 Y5.476 E18.94113
G1 X-1.975 Y3.974 E19.02953
G1 X-1.755 Y3.154 E19.06489
G1 X-3.257 Y1.652 E19.15329
G1 X-4.077 Y1.872 E19.18865
G1 X-5.579 Y0.371 E19.27704
G1 X-5.359 Y-0.450 E19.31240
G1 X-6.861 Y-1.951 E19.40080
G1 X-7.681 Y-1.732 E19.43616
G1 X-9.183 Y-3.233 E19.52456
G1 X-8.963 Y-4.054 E19.55992
G1 X-10.464 Y-5.555 E19.64832
G1 X-11.285 Y-5.335 E19.68368
G1 X-12.786 Y-6.837 E19.77207
G1 X-12.567 Y-7.657 E19.80743
G1 X-13.445 Y-8.536 E19.85916
G1 X-13.445 Y-9.576 E19.90246
G1 X-12.046 Y-8.178 E19.98481
G1 X-11.226 Y-8.397 E20.02017
G1 X-9.724 Y-6.896 E20.10857
G1 X-9.944 Y-6.075 E20.14393
G1 X-8.443 Y-4.574 E20.23233
G1 X-7.622 Y-4.794 E20.26768
G1 X-6.121 Y-3.292 E20.35608
G1 X-6.340 Y-2.472 E20.39144
G1 X-4.839 Y-0.970 E20.47984
G1 X-4.018 Y-1.190 E20.51520
G1 X-2.517 Y0.312 E20.60360
G1 X-2.737 Y1.132 E20.63896
G1 X-1.235 Y2.634 E20.72736
G1 X-0.415 Y2.414 E20.76271
G1 X1.087 Y3.915 E20.85111
G1 X0.867 Y4.736 E20.88647
G1 X2.369 Y6.238 E20.97487
G1 X3.189 Y6.018 E21.01023
G1 X4.691 Y7.519 E21.09863
G1 X4.471 Y8.340 E21.13399
G1 X5.973 Y9.841 E21.22239
G1 X6.793 Y9.621 E21.25774
G1 X8.295 Y11.123 E21.34614
G1 X8.075 Y11.944 E21.38150
G1 X9.576 Y13.445 E21.46990
G1 X10.397 Y13.225 E21.50526
G1 X10.617 Y13.445 E21.51820
G1 X11.657 Y13.445 F9000.000
G1 X10.917 Y12.705 F4320.000 E21.56177
G1 X11.137 Y11.885 E21.59713
G1 X9.635 Y10.383 E21.68553
G1 X8.815 Y10.603 E21.72089
G1 X7.313 Y9.101 E21.80928
G1 X7.533 Y8.281 E21.84464
G1 X6.031 Y6.779 E21.93304
G1 X5.211 Y6.999 E21.96840
G1 X3.709 Y5.498 E22.05680
G1 X3.929 Y4.677 E22.09216
G1 X2.428 Y3.175 E22.18056
G1 X1.607 Y3.395 E22.21592
G1 X0.106 Y1.894 E22.30431
G1 X0.325 Y1.073 E22.33967
G1 X-1.176 Y-0.428 E22.42807
G1 X-1.997 Y-0.208 E22.46343
G1 X-3.498 Y-1.710 E22.55183
G1 X-3.278 Y-2.531 E22.58719
G1 X-4.780 Y-4.032 E22.67559
G1 X-5.600 Y-3.812 E22.71095
G1 X-7.102 Y-5.314 E22.79934
G1 X-6.882 Y-6.134 E22.83470
G1 X-8.384 Y-7.636 E22.92310
G1 X-9.204 Y-7.416 E22.95846
G1 X-10.706 Y-8.918 E23.04686
G1 X-10.486 Y-9.738 E23.08222
G1 X-11.987 Y-11.240 E23.17062
G1 X-12.808 Y-11.020 E23.20598
G1 X-13.445 Y-11.657 E23.24349
G1 X-13.445 Y-13.445 E23.31792
G1 X-12.112 Y-13.445 E23.37341
G1 X-11.247 Y-12.580 E23.42432
G1 X-11.467 Y-11.760 E23.45968
G1 X-9.966 Y-10.258 E23.54808
G1 X-9.145 Y-10.478 E23.58344
G1 X-7.644 Y-8.977 E23.67183
G1 X-7.863 Y-8.156 E23.70719
G1 X-6.362 Y-6.654 E23.79559
G1 X-5.541 Y-6.874 E23.83095
G1 X-4.040 Y-5.373 E23.91935
G1 X-4.260 Y-4.552 E23.95471
G1 X-2.758 Y-3.051 E24.04311
G1 X-1.938 Y-3.271 E24.07846
G1 X-0.436 Y-1.769 E24.16686
G1 X-0.656 Y-0.948 E24.20222
G1 X0.846 Y0.553 E24.29062
G1 X1.666 Y0.333 E24.32598
G1 X3.168 Y1.835 E24.41438
G1 X2.948 Y2.655 E24.44974
G1 X4.449 Y4.157 E24.53814
G1 X5.270 Y3.937 E24.57349
G1 X6.771 Y5.439 E24.66189
G1 X6.552 Y6.259 E24.69725
G1 X8.053 Y7.761 E24.78565
G1 X8.874 Y7.541 E24.82101
G1 X10.375 Y9.042 E24.90941
G1 X10.155 Y9.863 E24.94477
G1 X11.657 Y11.364 E25.03317
G1 X12.477 Y11.145 E25.06852
G1 X13.445 Y12.112 E25.12549
G1 X13.445 Y13.445 E25.18097
G1 F1800.000 E24.18097
G1 X13.445 Y11.072 F9000.000
G1 F1800.000 E25.18097
G1 X12.998 Y10.624 F4320.000 E25.20732
G1 X13.217 Y9.804 E25.24268
G1 X11.716 Y8.302 E25.33107
G1 X10.895 Y8.522 E25.36643
G1 X9.394 Y7.021 E25.45483
G1 X9.614 Y6.200 E25.49019
G1 X8.112 Y4.699 E25.57859
G1 X7.292 Y4.918 E25.61395
G1 X5.790 Y3.417 E25.70235
G1 X6.010 Y2.596 E25.73771
G1 X4.508 Y1.095 E25.82610
G1 X3.688 Y1.315 E25.86146
G1 X2.186 Y-0.187 E25.94986
G1 X2.406 Y-1.007 E25.98522
G1 X0.905 Y-2.509 E26.07362
G1 X0.084 Y-2.289 E26.10898
G1 X-1.417 Y-3.791 E26.19738
G1 X-1.198 Y-4.611 E26.23274
G1 X-2.699 Y-6.113 E26.32113
G1 X-3.520 Y-5.893 E26.35649
G1 X-5.021 Y-7.394 E26.44489
G1 X-4.801 Y-8.215 E26.48025
G1 X-6.303 Y-9.717 E26.56865
G1 X-7.123 Y-9.497 E26.60401
G1 X-8.625 Y-10.998 E26.69241
G1 X-8.405 Y-11.819 E26.72777
G1 X-9.907 Y-13.320 E26.81616
G1 X-10.727 Y-13.100 E26.85152
G1 X-11.072 Y-13.445 E26.87181
G1 X-8.991 Y-13.445 E26.95842
G1 X-7.885 Y-12.339 E27.02355
G1 X-7.065 Y-12.559 E27.05891
G1 X-5.563 Y-11.057 E27.14731
G1 X-5.783 Y-10.237 E27.18266
G1 X-4.281 Y-8.735 E27.27106
G1 X-3.461 Y-8.955 E27.30642
G1 X-1.959 Y-7.453 E27.39482
G1 X-2.179 Y-6.633 E27.43018
G1 X-0.677 Y-5.131 E27.51858
G1 X0.143 Y-5.351 E27.55394
G1 X1.645 Y-3.850 E27.64233
G1 X1.425 Y-3.029 E27.67769
G1 X2.926 Y-1.528 E27.76609
G1 X3.747 Y-1.747 E27.80145
G1 X5.248 Y-0.246 E27.88985
G1 X5.029 Y0.575 E27.92521
G1 X6.530 Y2.076 E28.01361
G1 X7.351 Y1.856 E28.04897
G1 X8.852 Y3.358 E28.13736
G1 X8.632 Y4.178 E28.17272
G1 X10.134 Y5.680 E28.26112
G1 X10.954 Y5.460 E28.29648
G1 X12.456 Y6.962 E28.38488
G1 X12.236 Y7.782 E28.42024
G1 X13.445 Y8.991 E28.49142
G1 F1800.000 E27.49142
G1 X12.976 Y6.442 F9000.000
G1 F1800.000 E28.49142
G1 X11.475 Y4.940 F4320.000 E28.57981
G1 X11.694 Y4.120 E28.61517
G1 X10.193 Y2.618 E28.70357
G1 X9.372 Y2.838 E28.73893
G1 X7.871 Y1.336 E28.82733
G1 X8.091 Y0.516 E28.86269
G1 X6.589 Y-0.986 E28.95109
G1 X5.769 Y-0.766 E28.98645
G1 X4.267 Y-2.268 E29.07484
G1 X4.487 Y-3.088 E29.11020
G1 X2.985 Y-4.590 E29.19860
G1 X2.165 Y-4.370 E29.23396
G1 X0.663 Y-5.871 E29.32236
G1 X0.883 Y-6.692 E29.35772
G1 X-0.619 Y-8.193 E29.44612
G1 X-1.439 Y-7.974 E29.48148
G1 X-2.941 Y-9.475 E29.56987
G1 X-2.721 Y-10.296 E29.60523
G1 X-4.222 Y-11.797 E29.69363
G1 X-5.043 Y-11.577 E29.72899
G1 X-6.544 Y-13.079 E29.81739
G1 X-6.446 Y-13.445 E29.83317
G1 X-3.790 Y-13.445 E29.94376
G1 X-3.482 Y-13.138 E29.96185
G1 X-3.702 Y-12.317 E29.99721
G1 X-2.201 Y-10.816 E30.08561
G1 X-1.380 Y-11.036 E30.12097
G1 X0.121 Y-9.534 E30.20937
G1 X-0.098 Y-8.714 E30.24472
G1 X1.403 Y-7.212 E30.33312
G1 X2.224 Y-7.432 E30.36848
G1 X3.725 Y-5.930 E30.45688
G1 X3.505 Y-5.110 E30.49224
G1 X5.007 Y-3.608 E30.58064
G1 X5.827 Y-3.828 E30.61600
G1 X7.329 Y-2.326 E30.70440
G1 X7.109 Y-1.506 E30.73975
G1 X8.611 Y-0.004 E30.82815
G1 X9.431 Y-0.224 E30.86351
G1 X10.933 Y1.277 E30.95191
G1 X10.713 Y2.098 E30.98727
G1 X12.215 Y3.599 E31.07567
G1 X13.035 Y3.380 E31.11103
G1 X13.445 Y3.790 E31.13517
G1 X13.445 Y6.316 E31.24033
G1 F1800.000 E30.24033
G1 X13.445 Y1.709 F9000.000
G1 F1800.000 E31.24033
G1 X12.273 Y0.537 F4320.000 E31.30931
G1 X11.453 Y0.757 E31.34467
G1 X9.951 Y-0.744 E31.43307
G1 X10.171 Y-1.565 E31.46843
G1 X8.670 Y-3.066 E31.55683
G1 X7.849 Y-2.847 E31.59218
G1 X6.348 Y-4.348 E31.68058
G1 X6.567 Y-5.169 E31.71594
G1 X5.066 Y-6.670 E31.80434
G1 X4.245 Y-6.450 E31.83970
G1 X2.744 Y-7.952 E31.92810
G1 X2.964 Y-8.772 E31.96346
G1 X1.462 Y-10.274 E32.05186
G1 X0.642 Y-10.054 E32.08721
G1 X-0.860 Y-11.556 E32.17561
G1 X-0.640 Y-12.376 E32.21097
G1 X-1.709 Y-13.445 E32.27390
G1 X-0.669 Y-13.445 E32.31720
G1 X-0.120 Y-12.896 E32.34950
G1 X0.701 Y-13.116 E32.38486
G1 X2.202 Y-11.615 E32.47326
G1 X1.982 Y-10.794 E32.50862
G1 X3.484 Y-9.293 E32.59702
G1 X4.304 Y-9.512 E32.63238
G1 X5.806 Y-8.011 E32.72078
G1 X5.586 Y-7.190 E32.75614
G1 X7.088 Y-5.689 E32.84453
G1 X7.908 Y-5.909 E32.87989
G1 X9.410 Y-4.407 E32.96829
G1 X9.190 Y-3.587 E33.00365
G1 X10.691 Y-2.085 E33.09205
G1 X11.512 Y-2.305 E33.12741
G1 X13.013 Y-0.803 E33.21581
G1 X12.794 Y0.017 E33.25117
G1 X13.445 Y0.669 E33.28952
G1 F1800.000 E32.28952
G1 X13.445 Y-1.412 F9000.000
G1 F1800.000 E33.28952
G1 X12.032 Y-2.825 F4320.000 E33.37271
G1 X12.252 Y-3.646 E33.40807
G1 X10.750 Y-5.147 E33.49647
G1 X9.930 Y-4.927 E33.53183
G1 X8.428 Y-6.429 E33.62023
G1 X8.648 Y-7.249 E33.65559
