; generated by Slic3r 0.9.8 on 2013-04-16 at 15:19:34

; layer_height = 0.15
; perimeters = 1
; top_solid_layers = 0
; bottom_solid_layers = 0
; fill_density = 0.00
; perimeter_speed = 40
; infill_speed = 80
; travel_speed = 150
; scale = 1
; nozzle_diameter = 0.5
; filament_diameter = 3
; extrusion_multiplier = 1
; perimeters extrusion width = 0.80mm
; infill extrusion width = 0.80mm
; first layer extrusion width = 0.80mm

M127
M104 S200 T0 ; set temperature
(**** beginning of start.gcode ****)
(This is start code for The Replicator running a single material print)
M73 P0 (enable build progress)
G21 (set units to mm)
G90 (set positioning to absolute)
G10 P1 X16.5 Y0 Z-0.3 (Designate T0 Offset)
G10 P2 X-16.5 Y0 Z-0.3 (Designate T1 Offset)
G55 (Recall offset cooridinate system for T1)
M104 S0 T0 (set extruder temperature)
(**** begin homing ****)
G162 X Y F2500 (home XY axes maximum
G161 Z F1100 (home Z axis minimum)
G92 Z-5 (set Z to -5)
G1 Z0.0 (move Z to "0")
G161 Z F100 (home Z axis minimum)
M132 X Y Z A B (Recall stored home offsets for XYZAB axis)
(**** end homing ****)
G1 X105 Y-70 Z10 F3300.0 (move to waiting position)
G130 X0 Y0 A0 B0 (Set Stepper motor Vref to lower value while heating)
M6 T0 (wait for toolhead parts, nozzle, HBP, etc., to reach temperature)
G130 X127 Y127 A127 B127 (Set Stepper motor Vref to defaults)
M6 T0
M108 R3.0 T0
G0 X105 Y-70 (Position Nozzle)
G0 Z0.6     (Position Height)
M108 R4.0   (Set Extruder Speed)
M101        (Start Extruder)
G4 P1500    (Create Anchor)
(**** end of start.gcode ****)
G90 ; use absolute coordinates
G21 ; set units to millimeters
M73 P0
G1 F1800.000 E-1.00000
G1 Z0.400 F9000.000
G1 X-28.388 Y-12.262
G1 F1800.000 E0.00000
G1 X-12.268 Y-28.342 F1202.412 E0.94781
G1 X-11.538 Y-28.972 E0.98795
G1 X-11.008 Y-29.322 E1.01439
G1 X-10.448 Y-29.632 E1.04104
G1 X-5.778 Y-31.632 E1.25251
G1 X-4.978 Y-31.882 E1.28740
G1 X-4.428 Y-31.992 E1.31075
G1 X-3.868 Y-32.052 E1.33420
G1 X-3.308 Y-32.072 E1.35752
G1 X-2.748 Y-32.042 E1.38087
G1 X-2.198 Y-31.962 E1.40400
G1 X-1.648 Y-31.842 E1.42744
G1 X-1.118 Y-31.672 E1.45061
G1 X-0.598 Y-31.462 E1.47395
G1 X0.172 Y-31.112 E1.50916
G1 X0.742 Y-30.822 E1.53578
G1 X1.272 Y-30.482 E1.56200
G1 X2.072 Y-29.832 E1.60490
G1 X2.532 Y-29.402 E1.63112
G1 X2.942 Y-28.922 E1.65740
G1 X3.132 Y-28.672 E1.67047
G1 X3.482 Y-28.142 E1.69691
G1 X4.692 Y-26.082 E1.79636
G1 X4.982 Y-25.522 E1.82261
G1 X6.982 Y-21.232 E2.01964
G1 X8.692 Y-17.132 E2.20457
G1 X8.882 Y-16.612 E2.22761
G1 X9.032 Y-16.072 E2.25094
G1 X9.092 Y-15.802 E2.26246
G1 X9.172 Y-15.252 E2.28559
G1 X9.202 Y-14.692 E2.30894
G1 X9.192 Y-14.132 E2.33225
G1 X9.142 Y-13.572 E2.35566
G1 X9.032 Y-13.022 E2.37901
G1 X8.882 Y-12.492 E2.40193
G1 X8.692 Y-11.962 E2.42537
G1 X8.462 Y-11.462 E2.44828
G1 X8.322 Y-11.212 E2.46021
G1 X7.412 Y-9.752 E2.53182
G1 X7.042 Y-9.272 E2.55705
G1 X6.632 Y-8.822 E2.58240
G1 X-9.048 Y6.858 E3.50548
G1 X-9.498 Y7.278 E3.53110
G1 X-9.988 Y7.648 E3.55666
G1 X-11.178 Y8.398 E3.61522
G1 X-11.658 Y8.668 E3.63814
G1 X-12.168 Y8.908 E3.66161
G1 X-12.428 Y9.008 E3.67320
G1 X-13.238 Y9.248 E3.70837
G1 X-13.788 Y9.348 E3.73164
G1 X-14.618 Y9.408 E3.76628
G1 X-15.458 Y9.378 E3.80127
G1 X-16.288 Y9.228 E3.83638
G1 X-16.828 Y9.078 E3.85971
G1 X-17.348 Y8.888 E3.88276
G1 X-21.558 Y6.908 E4.07642
G1 X-25.988 Y4.758 E4.28141
G1 X-27.568 Y3.868 E4.35689
G1 X-28.518 Y3.218 E4.40481
G1 X-29.168 Y2.688 E4.43972
G1 X-29.608 Y2.288 E4.46448
G1 X-30.018 Y1.858 E4.48921
G1 X-30.388 Y1.388 E4.51411
G1 X-30.708 Y0.888 E4.53882
G1 X-31.338 Y-0.182 E4.59051
G1 X-31.458 Y-0.422 E4.60168
G1 X-31.678 Y-0.922 E4.62442
G1 X-31.858 Y-1.442 E4.64732
G1 X-31.928 Y-1.712 E4.65894
G1 X-32.078 Y-2.522 E4.69323
G1 X-32.128 Y-3.072 E4.71622
G1 X-32.128 Y-3.612 E4.73870
G1 X-32.088 Y-4.162 E4.76165
G1 X-32.048 Y-4.432 E4.77301
G1 X-31.868 Y-5.242 E4.80755
G1 X-31.688 Y-5.762 E4.83046
G1 X-29.688 Y-10.442 E5.04232
G1 X-29.208 Y-11.272 E5.08223
G1 X-28.818 Y-11.782 E5.10896
G1 X-28.464 Y-12.183 E5.13120
G1 X-28.388 Y-12.262 E5.13579
G1 F1800.000 E4.13579
G1 X-22.482 Y-6.905 F9000.000
G1 F1800.000 E5.13579
G1 X-21.499 Y-6.393 F1202.412 E5.18192
G1 X-21.197 Y-6.460 E5.19481
G1 X-19.661 Y-5.696 E5.26619
G1 X-18.756 Y-5.355 E5.30646
G1 X-17.756 Y-4.800 E5.35407
G1 X-17.625 Y-4.761 E5.35978
G1 X-17.167 Y-4.716 E5.37894
G1 X-16.530 Y-4.592 E5.40592
G1 X-16.604 Y-5.470 E5.44261
G1 X-17.223 Y-6.992 E5.51100
G1 X-17.258 Y-7.075 E5.51475
G1 X-17.925 Y-8.121 E5.56638
G1 X-18.215 Y-8.725 E5.59425
G1 X-18.412 Y-10.173 E5.65511
G1 X-18.099 Y-10.295 E5.66912
G1 X-17.496 Y-9.426 E5.71315
G1 X-17.326 Y-9.250 E5.72334
G1 X-17.050 Y-9.232 E5.73484
G1 X-16.628 Y-8.789 E5.76031
G1 X-16.117 Y-7.970 E5.80048
G1 X-15.162 Y-7.156 E5.85275
G1 X-14.290 Y-6.506 E5.89800
G1 X-13.867 Y-5.497 E5.94357
G1 X-13.401 Y-4.869 E5.97611
G1 X-13.280 Y-4.734 E5.98365
G1 X-12.497 Y-4.318 E6.02056
G1 X-12.015 Y-3.664 E6.05438
G1 X-11.909 Y-3.514 E6.06204
G1 X-11.810 Y-3.319 E6.07114
G1 X-11.251 Y-2.473 E6.11334
G1 X-10.968 Y-1.599 E6.15159
G1 X-11.290 Y-0.752 E6.18927
G1 X-12.375 Y-0.436 E6.23632
G1 X-12.997 Y-0.220 E6.26376
G1 X-13.320 Y0.038 E6.28094
G1 X-13.332 Y1.286 E6.33290
G1 X-13.378 Y1.421 E6.33884
G1 X-13.804 Y2.105 E6.37240
G1 X-13.978 Y2.179 E6.38026
G1 X-14.736 Y2.679 E6.41809
G1 X-16.661 Y1.711 E6.50778
G1 X-17.364 Y1.274 E6.54224
G1 X-18.682 Y0.824 E6.60018
G1 X-19.536 Y0.045 E6.64833
G1 X-20.409 Y-0.108 E6.68522
G1 X-22.671 Y-1.107 E6.78814
G1 X-23.392 Y-1.789 E6.82947
G1 X-24.248 Y-2.674 E6.88073
G1 X-24.104 Y-2.918 E6.89253
G1 X-23.224 Y-2.683 E6.93046
G1 X-22.869 Y-2.814 E6.94623
G1 X-21.745 Y-2.694 E6.99326
G1 X-20.453 Y-2.260 E7.04999
G1 X-19.372 Y-1.981 E7.09648
G1 X-17.445 Y-1.679 E7.17768
G1 X-18.701 Y-3.136 E7.25778
G1 X-18.804 Y-3.219 E7.26325
G1 X-19.953 Y-3.949 E7.31993
G1 X-20.888 Y-4.522 E7.36558
G1 X-22.078 Y-5.650 E7.43385
G1 X-22.081 Y-5.841 E7.44178
G1 X-22.786 Y-6.461 E7.48088
G1 X-22.544 Y-6.814 E7.49871
G1 X-22.482 Y-6.905 E7.50330
G1 F1800.000 E6.50330
G1 X-10.291 Y-18.104 F9000.000
G1 F1800.000 E7.50330
G1 X-10.169 Y-18.417 F1202.412 E7.51730
G1 X-8.720 Y-18.220 E7.57817
G1 X-8.118 Y-17.929 E7.60602
G1 X-7.075 Y-17.260 E7.65759
G1 X-5.481 Y-16.598 E7.72946
G1 X-4.605 Y-16.519 E7.76608
G1 X-4.724 Y-17.156 E7.79307
G1 X-4.766 Y-17.617 E7.81233
G1 X-4.804 Y-17.749 E7.81805
G1 X-5.354 Y-18.755 E7.86577
G1 X-5.693 Y-19.663 E7.90613
G1 X-6.455 Y-21.201 E7.97759
G1 X-6.388 Y-21.504 E7.99048
G1 X-6.900 Y-22.486 E8.03661
G1 X-6.456 Y-22.791 E8.05904
G1 X-5.836 Y-22.085 E8.09813
G1 X-5.646 Y-22.083 E8.10606
G1 X-4.520 Y-20.891 E8.17428
G1 X-3.230 Y-18.797 E8.27666
G1 X-3.150 Y-18.695 E8.28210
G1 X-1.705 Y-17.414 E8.36245
G1 X-1.991 Y-19.358 E8.44424
G1 X-2.263 Y-20.447 E8.49093
G1 X-2.692 Y-21.745 E8.54785
G1 X-2.810 Y-22.872 E8.59503
G1 X-2.679 Y-23.228 E8.61082
G1 X-2.914 Y-24.108 E8.64875
G1 X-2.668 Y-24.252 E8.66062
G1 X-1.787 Y-23.396 E8.71175
G1 X-1.110 Y-22.672 E8.75302
G1 X-0.638 Y-21.606 E8.80153
G1 X-0.588 Y-21.454 E8.80819
G1 X-0.132 Y-20.393 E8.85628
G1 X0.010 Y-19.512 E8.89341
G1 X0.766 Y-18.639 E8.94148
G1 X1.183 Y-17.292 E9.00017
G1 X1.592 Y-16.565 E9.03491
G1 X2.125 Y-15.386 E9.08879
G1 X2.479 Y-14.542 E9.12688
G1 X1.960 Y-13.760 E9.16593
G1 X1.882 Y-13.580 E9.17409
G1 X1.211 Y-13.166 E9.20693
G1 X1.088 Y-13.126 E9.21231
G1 X-0.126 Y-13.157 E9.26287
G1 X-0.389 Y-12.829 E9.28035
G1 X-0.617 Y-12.198 E9.30828
G1 X-0.962 Y-11.080 E9.35698
G1 X-1.766 Y-10.786 E9.39262
G1 X-2.607 Y-11.105 E9.43006
G1 X-3.408 Y-11.694 E9.47147
G1 X-3.598 Y-11.801 E9.48053
G1 X-4.376 Y-12.419 E9.52190
G1 X-4.774 Y-13.224 E9.55929
G1 X-4.906 Y-13.349 E9.56686
G1 X-5.522 Y-13.830 E9.59938
G1 X-6.519 Y-14.268 E9.64471
G1 X-7.159 Y-15.151 E9.69011
G1 X-7.969 Y-16.115 E9.74252
G1 X-8.785 Y-16.630 E9.78271
G1 X-9.228 Y-17.054 E9.80820
G1 X-9.246 Y-17.330 E9.81973
G1 X-9.421 Y-17.500 E9.82992
G1 X-10.200 Y-18.041 E9.86940
G1 X-10.291 Y-18.104 E9.87399
G1 F1800.000 E8.87399
G1 X-24.705 Y-2.439 F9000.000
G1 F1800.000 E9.87399
G1 X-24.255 Y-1.998 F901.809 E9.90017
G1 X-24.705 Y-2.439 F9000.000
G1 X-24.905 Y-2.528 F901.809 E9.90930
G1 X-24.983 Y-3.140 E9.93495
G1 X-24.839 Y-3.186 F9000.000
G1 X-24.554 Y-3.319 F901.809 E9.94804
G1 X-24.839 Y-3.186 F9000.000
G1 X-25.291 Y-3.345 F901.809 E9.96799
G1 X-25.397 Y-3.355 E9.97239
G1 F1800.000 E8.97239
G1 X-23.282 Y-7.050 F9000.000
G1 F1800.000 E9.97239
G1 X-23.255 Y-7.248 F901.809 E9.98070
G1 X-23.089 Y-7.330 F9000.000
G1 X-22.751 Y-7.486 F901.809 E9.99623
G1 X-23.089 Y-7.330 F9000.000
G1 X-23.255 Y-7.248 F901.809 E10.00392
G1 X-23.619 Y-7.485 E10.02201
G1 F1800.000 E9.02201
G1 X-18.870 Y-9.525 F9000.000
G1 F1800.000 E10.02201
G1 X-18.985 Y-9.813 F901.809 E10.03493
G1 X-19.093 Y-10.720 E10.07296
G1 X-19.590 Y-11.060 E10.09801
G1 X-19.093 Y-10.720 F9000.000
G1 X-18.979 Y-10.742 F901.809 E10.10285
G1 X-18.965 Y-10.752 E10.10358
G1 F1800.000 E9.10358
G1 X-10.695 Y-18.768 F9000.000
G1 F1800.000 E10.10358
G1 X-10.726 Y-18.809 F901.809 E10.10573
G1 X-10.713 Y-19.099 E10.11781
G1 X-10.870 Y-19.272 F9000.000
G1 X-10.713 Y-19.099 F901.809 E10.12754
G1 X-9.945 Y-19.006 E10.15973
G1 X-9.639 Y-18.898 E10.17323
G1 X-9.593 Y-18.925 E10.17546
G1 X-10.870 Y-19.272 F9000.000
G1 X-11.068 Y-19.463 F901.809 E10.18691
G1 X-11.069 Y-19.526 E10.18954
G1 F1800.000 E9.18954
G1 X-7.427 Y-22.898 F9000.000
G1 F1800.000 E10.18954
G1 X-7.339 Y-23.411 F901.809 E10.21124
G1 X-7.476 Y-23.558 E10.21960
G1 X-7.501 Y-23.567 E10.22071
G1 F1800.000 E9.22071
G1 X-3.307 Y-24.667 F9000.000
G1 F1800.000 E10.22071
G1 X-3.177 Y-24.839 F901.809 E10.22968
G1 X-3.137 Y-24.987 E10.23607
G1 X-3.219 Y-25.084 F9000.000
G1 X-2.615 Y-24.976 F901.809 E10.26161
G1 X-2.323 Y-24.724 E10.27765
G1 X-2.036 Y-24.220 E10.30181
G1 X-3.219 Y-25.084 F9000.000
G1 X-3.237 Y-25.149 F901.809 E10.30462
G1 X-3.348 Y-25.306 E10.31263
G1 X-3.385 Y-25.326 E10.31439
G1 F1800.000 E9.31439
G1 X-14.656 Y-5.802 F9000.000
G1 F1800.000 E10.31439
G1 X-15.125 Y-6.271 F2404.824 E10.34308
G1 X-16.316 Y-6.381 E10.39484
G1 X-11.601 Y-1.666 E10.68337
G1 X-12.021 Y-1.003 E10.71730
G1 X-16.043 Y-5.026 E10.96347
G1 X-16.033 Y-3.934 E11.01070
G1 X-12.837 Y-0.739 E11.20628
G1 X-13.511 Y-0.331 F9000.000
G1 X-17.376 Y-4.196 F2404.824 E11.44287
G1 X-18.589 Y-4.327 F9000.000
G1 X-13.823 Y0.438 F2404.824 E11.73453
G1 F1800.000 E10.73453
G1 X-16.428 Y1.079 F9000.000
G1 F1800.000 E11.73453
G1 X-18.866 Y-1.360 F2404.824 E11.88375
G1 X-19.889 Y-1.301 E11.92810
G1 X-19.419 Y-0.831 E11.95687
G1 X-17.576 Y-1.151 F9000.000
G1 X-14.436 Y1.988 F2404.824 E12.14901
G1 X-13.886 Y1.457 E12.18211
G1 X-16.286 Y-0.943 E12.32898
G1 F1800.000 E11.32898
G1 X-5.806 Y-14.627 F9000.000
G1 F1800.000 E12.32898
G1 X-6.275 Y-15.096 F2404.824 E12.35768
G1 X-6.425 Y-16.327 E12.41139
G1 X-1.380 Y-11.282 E12.72024
G1 X-1.112 Y-12.096 E12.75732
G1 X-5.049 Y-16.033 E12.99837
G1 X-3.954 Y-16.020 E13.04580
G1 X-0.828 Y-12.894 E13.23711
G1 X-0.364 Y-13.512 E13.27055
G1 X-4.202 Y-17.350 E13.50552
G1 X-4.326 Y-18.555 E13.55798
G1 X0.583 Y-13.647 E13.85846
G1 X1.488 Y-13.823 E13.89840
G1 X-0.991 Y-16.302 E14.05017
G1 X-1.184 Y-17.578 E14.10602
G1 X1.784 Y-14.610 E14.28772
G1 X0.773 Y-16.702 E14.38828
G1 X-1.378 Y-18.853 E14.52000
G1 X-0.826 Y-19.383 E14.55312
G1 X-1.296 Y-19.853 E14.58185
M126
M73 P0
G1 F1800.000 E13.58185
G1 Z0.550 F9000.000
G1 X-14.316 Y-6.494
G1 F1800.000 E14.58185
G1 X-14.047 Y-6.043 F710.354 E14.59041
G1 X-13.830 Y-5.525 E14.59956
G1 X-13.573 Y-5.178 E14.60659
G1 X-13.242 Y-4.810 E14.61465
G1 X-12.487 Y-4.388 E14.62876
G1 X-11.878 Y-3.535 E14.64583
G1 X-11.546 Y-2.881 E14.65778
G1 X-11.264 Y-2.454 E14.66612
G1 X-11.007 Y-1.595 E14.68074
G1 X-11.101 Y-1.194 E14.68744
G1 X-11.247 Y-0.811 E14.69412
G1 X-11.827 Y-0.496 E14.70488
G1 X-12.645 Y-0.238 E14.71886
G1 X-13.173 Y0.184 E14.72986
G1 X-13.181 Y0.954 E14.74242
G1 X-13.341 Y1.433 E14.75064
G1 X-13.766 Y2.113 E14.76371
G1 X-14.292 Y2.335 E14.77302
G1 X-14.773 Y2.652 E14.78239
G1 X-15.166 Y2.487 E14.78935
G1 X-16.036 Y2.053 E14.80518
G1 X-16.498 Y1.780 E14.81393
G1 X-16.997 Y1.552 E14.82286
G1 X-17.377 Y1.315 E14.83015
G1 X-18.030 Y1.096 E14.84138
G1 X-18.657 Y0.838 E14.85243
G1 X-19.141 Y0.461 E14.86243
G1 X-19.497 Y0.132 E14.87032
G1 X-19.867 Y0.073 E14.87643
G1 X-20.431 Y-0.112 E14.88609
G1 X-20.770 Y-0.263 E14.89214
G1 X-21.589 Y-0.541 E14.90623
G1 X-22.675 Y-1.066 E14.92589
G1 X-23.570 Y-1.906 E14.94588
G1 X-24.255 Y-2.615 E14.96196
G1 X-24.112 Y-2.860 E14.96658
G1 X-23.240 Y-2.626 E14.98128
G1 X-22.914 Y-2.746 E14.98693
G1 X-22.577 Y-2.656 E14.99263
G1 X-21.470 Y-2.544 E15.01074
G1 X-20.272 Y-2.148 E15.03131
G1 X-19.416 Y-1.928 E15.04570
G1 X-19.140 Y-1.921 E15.05020
G1 X-17.541 Y-1.663 E15.07660
G1 X-18.371 Y-2.763 E15.09906
G1 X-18.692 Y-3.135 E15.10705
G1 X-19.036 Y-3.411 E15.11425
G1 X-19.847 Y-3.919 E15.12984
G1 X-20.163 Y-4.175 E15.13646
G1 X-20.946 Y-4.671 E15.15156
G1 X-21.224 Y-4.942 E15.15790
G1 X-21.378 Y-5.039 E15.16085
G1 X-21.611 Y-5.258 E15.16606
G1 X-21.839 Y-5.419 E15.17062
G1 X-22.083 Y-5.656 E15.17616
G1 X-22.097 Y-6.717 E15.19343
G1 X-21.545 Y-6.429 E15.20358
G1 X-21.270 Y-6.490 E15.20817
G1 X-20.929 Y-6.327 E15.21433
G1 X-20.707 Y-6.182 E15.21865
G1 X-20.429 Y-6.042 E15.22372
G1 X-20.124 Y-5.837 E15.22970
G1 X-19.452 Y-5.497 E15.24197
G1 X-18.768 Y-5.240 E15.25388
G1 X-18.010 Y-4.819 E15.26801
G1 X-17.637 Y-4.708 E15.27435
G1 X-17.264 Y-4.671 E15.28045
G1 X-16.487 Y-4.520 E15.29336
G1 X-16.560 Y-5.394 E15.30766
G1 X-17.353 Y-7.313 E15.34149
G1 X-17.873 Y-8.130 E15.35727
G1 X-18.186 Y-8.754 E15.36864
G1 X-18.342 Y-9.995 E15.38902
G1 X-18.146 Y-10.090 E15.39258
G1 X-17.390 Y-9.310 E15.41028
G1 X-17.042 Y-9.287 E15.41597
G1 X-16.809 Y-9.087 E15.42096
G1 X-16.570 Y-8.837 E15.42661
G1 X-16.399 Y-8.409 E15.43412
G1 X-16.101 Y-7.940 E15.44318
G1 X-14.783 Y-6.842 E15.47112
G1 X-14.409 Y-6.563 E15.47873
G1 X-14.316 Y-6.494 E15.48061
G1 F1800.000 E14.48061
G1 X-6.507 Y-14.294 F9000.000
G1 F1800.000 E15.48061
G1 X-6.850 Y-14.768 F710.354 E15.49013
G1 X-7.938 Y-16.099 E15.51815
G1 X-8.406 Y-16.400 E15.52721
G1 X-8.833 Y-16.572 E15.53471
G1 X-9.083 Y-16.812 E15.54036
G1 X-9.283 Y-17.045 E15.54536
G1 X-9.305 Y-17.394 E15.55106
G1 X-10.086 Y-18.151 E15.56878
G1 X-9.991 Y-18.347 E15.57233
G1 X-8.750 Y-18.191 E15.59271
G1 X-8.127 Y-17.877 E15.60407
G1 X-7.313 Y-17.355 E15.61983
G1 X-5.405 Y-16.553 E15.65355
G1 X-4.533 Y-16.475 E15.66782
G1 X-4.678 Y-17.254 E15.68074
G1 X-4.712 Y-17.629 E15.68688
G1 X-4.822 Y-18.004 E15.69323
G1 X-5.239 Y-18.767 E15.70741
G1 X-5.495 Y-19.453 E15.71933
G1 X-5.833 Y-20.127 E15.73163
G1 X-6.037 Y-20.433 E15.73762
G1 X-6.177 Y-20.711 E15.74269
G1 X-6.322 Y-20.933 E15.74701
G1 X-6.485 Y-21.274 E15.75317
G1 X-6.424 Y-21.550 E15.75776
G1 X-6.712 Y-22.102 E15.76792
G1 X-5.652 Y-22.087 E15.78519
G1 X-5.415 Y-21.844 E15.79073
G1 X-5.254 Y-21.616 E15.79528
G1 X-5.035 Y-21.382 E15.80049
G1 X-4.939 Y-21.229 E15.80344
G1 X-4.668 Y-20.950 E15.80977
G1 X-4.176 Y-20.165 E15.82487
G1 X-3.922 Y-19.848 E15.83148
G1 X-3.421 Y-19.032 E15.84709
G1 X-3.148 Y-18.685 E15.85428
G1 X-2.782 Y-18.360 E15.86225
G1 X-1.689 Y-17.511 E15.88481
G1 X-1.934 Y-19.124 E15.91140
G1 X-1.938 Y-19.402 E15.91593
G1 X-2.153 Y-20.263 E15.93039
G1 X-2.543 Y-21.469 E15.95103
G1 X-2.653 Y-22.579 E15.96920
G1 X-2.742 Y-22.918 E15.97492
G1 X-2.622 Y-23.244 E15.98058
G1 X-2.855 Y-24.115 E15.99527
G1 X-2.609 Y-24.259 E15.99992
G1 X-1.904 Y-23.574 E16.01594
G1 X-1.069 Y-22.676 E16.03592
G1 X-0.552 Y-21.583 E16.05561
G1 X-0.282 Y-20.757 E16.06977
G1 X-0.135 Y-20.415 E16.07584
G1 X0.042 Y-19.843 E16.08559
G1 X0.096 Y-19.472 E16.09171
G1 X0.414 Y-19.109 E16.09956
G1 X0.779 Y-18.614 E16.10958
G1 X1.021 Y-17.970 E16.12079
G1 X1.224 Y-17.304 E16.13214
G1 X1.445 Y-16.912 E16.13947
G1 X1.656 Y-16.399 E16.14851
G1 X1.907 Y-15.917 E16.15736
G1 X2.300 Y-15.010 E16.17347
G1 X2.453 Y-14.579 E16.18092
G1 X2.122 Y-14.081 E16.19067
G1 X1.888 Y-13.541 E16.20026
G1 X1.221 Y-13.128 E16.21305
G1 X0.763 Y-12.981 E16.22088
G1 X0.010 Y-13.001 E16.23315
G1 X-0.418 Y-12.466 E16.24431
G1 X-0.694 Y-11.631 E16.25863
G1 X-1.021 Y-11.038 E16.26967
